packages/ndla-icons/svg/common/HumanMaleBoard.svg

<svg width="18" height="18" viewBox="0 0 18 18" fill="none" data-license="Apache License 2.0" data-source="Labs" xmlns="http://www.w3.org/2000/svg">
    <path d="M15.6667 13.1667C16.1087 13.1667 16.5326 12.9912 16.8452 12.6786C17.1577 12.366 17.3333 11.9421 17.3333 11.5001V2.33341C17.3333 1.89139 17.1577 1.46746 16.8452 1.1549C16.5326 0.842343 16.1087 0.666748 15.6667 0.666748H6.88333C7.175 1.17508 7.33333 1.75008 7.33333 2.33341H15.6667V11.5001H8.16667V13.1667H15.6667ZM11.5 4.83342V6.50008H6.5V17.3334H4.83333V12.3334H3.16667V17.3334H1.5V10.6667H0.25V6.50008C0.25 6.05805 0.425595 5.63413 0.738155 5.32157C1.05072 5.00901 1.47464 4.83342 1.91667 4.83342H11.5ZM5.66667 2.33341C5.66667 2.77544 5.49107 3.19937 5.17851 3.51193C4.86595 3.82449 4.44203 4.00008 4 4.00008C3.55797 4.00008 3.13405 3.82449 2.82149 3.51193C2.50893 3.19937 2.33333 2.77544 2.33333 2.33341C2.33333 1.89139 2.50893 1.46746 2.82149 1.1549C3.13405 0.842343 3.55797 0.666748 4 0.666748C4.44203 0.666748 4.86595 0.842343 5.17851 1.1549C5.49107 1.46746 5.66667 1.89139 5.66667 2.33341Z" />
</svg>

<svg xmlns="http://www.w3.org/2000/svg" fill="none" data-license="Apache License 2.0" data-source="Labs" viewBox="0 0 18 18">
  <path d="M15.7 13.2a1.7 1.7 0 0 0 1.6-1.7V2.3A1.7 1.7 0 0 0 15.7.7H6.9c.3.5.4 1 .4 1.6h8.4v9.2H8.2v1.7h7.5Zm-4.2-8.4v1.7h-5v10.8H4.8v-5H3.2v5H1.5v-6.6H.2V6.5A1.7 1.7 0 0 1 2 4.8h9.6ZM5.7 2.3a1.7 1.7 0 1 1-3.4 0 1.7 1.7 0 0 1 3.4 0Z"/>
</svg>
